docs/media/img/didoo.svg

<svg height="77.679" viewBox="0 0 295.313 77.679" width="295.313" xmlns="http://www.w3.org/2000/svg"><g fill="#fff"><path d="m40.337 1.498h19.687v74.896h-17.547l-.856-5.671c-4.494 5.136-11.555 6.955-17.44 6.634-15.514-.962-24.181-10.699-24.181-27.39 0-16.156 10.271-27.604 25.679-27.604 6.74 0 11.769 2.14 14.658 5.671zm-20.757 48.469c0 7.383 4.708 11.556 10.593 11.556 6.633 0 10.592-5.457 10.592-11.021 0-6.42-3.638-12.197-10.592-12.197-5.885 0-10.593 4.279-10.593 11.662z"/><path d="m81.532 0c5.457 0 11.021 3.317 11.021 9.951 0 6.526-5.563 9.843-11.021 9.843-5.563 0-11.127-3.316-11.127-9.843-.001-6.634 5.563-9.951 11.127-9.951zm9.843 76.395v-51.999h-19.793v51.999z"/><path d="m140.487 1.498h19.688v74.896h-17.547l-.856-5.671c-4.494 5.136-11.556 6.955-17.44 6.634-15.514-.963-24.181-10.699-24.181-27.391 0-16.156 10.271-27.604 25.679-27.604 6.741 0 11.77 2.14 14.658 5.671v-26.535zm-20.757 48.469c0 7.383 4.708 11.556 10.593 11.556 6.634 0 10.593-5.457 10.593-11.021 0-6.42-3.639-12.197-10.593-12.197-5.885 0-10.593 4.279-10.593 11.662z"/><path d="m229.188 50.074c0 19.259-15.3 27.604-30.172 27.604-15.193 0-30.173-8.346-30.173-27.604 0-19.58 14.872-27.712 30.173-27.712 15.622 0 30.172 8.452 30.172 27.712zm-19.258 0c0-6.099-3.959-11.556-10.913-11.556-6.955 0-10.914 5.457-10.914 11.556s3.959 11.448 10.914 11.448c6.633 0 10.913-5.029 10.913-11.448z"/><path d="m295.313 50.074c0 19.259-15.3 27.604-30.172 27.604-15.193 0-30.173-8.346-30.173-27.604 0-19.58 14.872-27.712 30.173-27.712 15.622 0 30.172 8.452 30.172 27.712zm-19.258 0c0-6.099-3.959-11.556-10.913-11.556-6.955 0-10.914 5.457-10.914 11.556s3.959 11.448 10.914 11.448c6.633 0 10.913-5.029 10.913-11.448z"/></g></svg>

<?xml version="1.0" encoding="utf-8"?>
<!DOCTYPE svg PUBLIC "-//W3C//DTD SVG 1.1//EN" "http://www.w3.org/Graphics/SVG/1.1/DTD/svg11.dtd">
<svg version="1.1" id="didoo" xmlns="http://www.w3.org/2000/svg" xmlns:xlink="http://www.w3.org/1999/xlink" x="0px" y="0px"
	 width="295.313px" height="77.679px" viewBox="0 0 295.313 77.679"
	 xml:space="preserve">
<g>
	<path fill="#FFFFFF" d="M40.337,1.498h19.687v74.896H42.477l-0.856-5.671c-4.494,5.136-11.555,6.955-17.44,6.634C8.667,76.395,0,66.658,0,49.967
		c0-16.156,10.271-27.604,25.679-27.604c6.74,0,11.769,2.14,14.658,5.671V1.498z M19.58,49.967c0,7.383,4.708,11.556,10.593,11.556
		c6.633,0,10.592-5.457,10.592-11.021c0-6.42-3.638-12.197-10.592-12.197C24.288,38.305,19.58,42.584,19.58,49.967z"/>
	<path fill="#FFFFFF" d="M81.532,0c5.457,0,11.021,3.317,11.021,9.951c0,6.526-5.563,9.843-11.021,9.843c-5.563,0-11.127-3.316-11.127-9.843
		C70.404,3.317,75.968,0,81.532,0z M91.375,76.395V24.396H71.582v51.999H91.375z"/>
	<path fill="#FFFFFF" d="M140.487,1.498h19.688v74.896h-17.547l-0.856-5.671c-4.494,5.136-11.556,6.955-17.44,6.634
		c-15.514-0.963-24.181-10.699-24.181-27.391c0-16.156,10.271-27.604,25.679-27.604c6.741,0,11.77,2.14,14.658,5.671V1.498z
		 M119.73,49.967c0,7.383,4.708,11.556,10.593,11.556c6.634,0,10.593-5.457,10.593-11.021c0-6.42-3.639-12.197-10.593-12.197
		C124.438,38.305,119.73,42.584,119.73,49.967z"/>
	<path fill="#FFFFFF" d="M229.188,50.074c0,19.259-15.3,27.604-30.172,27.604c-15.193,0-30.173-8.346-30.173-27.604
		c0-19.58,14.872-27.712,30.173-27.712C214.638,22.362,229.188,30.814,229.188,50.074z M209.93,50.074
		c0-6.099-3.959-11.556-10.913-11.556c-6.955,0-10.914,5.457-10.914,11.556s3.959,11.448,10.914,11.448
		C205.65,61.522,209.93,56.493,209.93,50.074z"/>
	<path fill="#FFFFFF" d="M295.313,50.074c0,19.259-15.3,27.604-30.172,27.604c-15.193,0-30.173-8.346-30.173-27.604
		c0-19.58,14.872-27.712,30.173-27.712C280.763,22.362,295.313,30.814,295.313,50.074z M276.055,50.074
		c0-6.099-3.959-11.556-10.913-11.556c-6.955,0-10.914,5.457-10.914,11.556s3.959,11.448,10.914,11.448
		C271.775,61.522,276.055,56.493,276.055,50.074z"/>
</g>
</svg>
